plasmoid/contents/icons/18.svg

<?xml version="1.0" encoding="UTF-8" standalone="no"?>
<svg
   xmlns:dc="http://purl.org/dc/elements/1.1/"
   xmlns:cc="http://creativecommons.org/ns#"
   xmlns:rdf="http://www.w3.org/1999/02/22-rdf-syntax-ns#"
   xmlns:svg="http://www.w3.org/2000/svg"
   xmlns="http://www.w3.org/2000/svg"
   xmlns:sodipodi="http://sodipodi.sourceforge.net/DTD/sodipodi-0.dtd"
   xmlns:inkscape="http://www.inkscape.org/namespaces/inkscape"
   version="1.1"
   id="Layer_1"
   x="0px"
   y="0px"
   width="552"
   height="552"
   viewBox="0 0 552 552"
   enable-background="new 0 0 512 512"
   xml:space="preserve"
   sodipodi:docname="18.svg"><metadata
   id="metadata13"><rdf:RDF><cc:Work
       rdf:about=""><dc:format>image/svg+xml</dc:format><dc:type
         rdf:resource="http://purl.org/dc/dcmitype/StillImage" /></cc:Work></rdf:RDF></metadata><defs
   id="defs11" /><sodipodi:namedview
   pagecolor="#ffffff"
   bordercolor="#666666"
   borderopacity="1"
   objecttolerance="10"
   gridtolerance="10"
   guidetolerance="10"
   inkscape:pageopacity="0"
   inkscape:pageshadow="2"
   inkscape:window-width="640"
   inkscape:window-height="480"
   id="namedview9"
   fit-margin-top="20"
   fit-margin-left="20"
   fit-margin-right="20"
   fit-margin-bottom="20" />
	<g
   id="g6"
   transform="translate(20,20)">
		<g
   id="g4">
			<style
   id="current-color-scheme" />
			<path
   class="ColorScheme-Text"
   id="hint-apply-color-scheme"
   fill="currentColor"
   d="m 400,64 c -5.312,0 -10.562,0.375 -15.792,1.125 C 354.334,24.417 307.188,0 256,0 204.812,0 157.688,24.417 127.792,65.125 122.562,64.375 117.312,64 112,64 50.25,64 0,114.25 0,176 c 0,61.75 50.25,112 112,112 13.688,0 27.084,-2.5 39.709,-7.333 C 180.666,305.917 217.5,320 256,320 294.542,320 331.333,305.917 360.291,280.667 372.916,285.5 386.312,288 400,288 461.75,288 512,237.75 512,176 512,114.25 461.75,64 400,64 Z m 0,192 c -9.709,0 -19.209,-1.75 -28.25,-5.208 l -18,-6.917 -14.5,12.667 C 316,276.833 286.438,288 256,288 c -30.438,0 -60,-11.167 -83.25,-31.458 l -14.5,-12.667 -18,6.917 C 131.25,254.25 121.709,256 112,256 67.875,256 32,220.104 32,176 c 0,-44.104 35.875,-80 80,-80 3.792,0 7.5,0.271 11.25,0.792 l 18.958,2.75 11.354,-15.458 C 177.875,50.979 215.209,32 256,32 c 40.812,0 78.125,18.958 102.417,52.063 l 11.375,15.479 18.999,-2.75 C 392.5,96.271 396.208,96 400,96 c 44.125,0 80,35.896 80,80 0,44.104 -35.875,80 -80,80 z M 96,320 c -17.688,0 -32,14.312 -32,32 0,17.688 14.312,32 32,32 17.688,0 32,-14.312 32,-32 0,-17.688 -14.312,-32 -32,-32 z m 160,32 c -17.688,0 -32,14.312 -32,32 0,17.688 14.312,32 32,32 17.688,0 32,-14.312 32,-32 0,-17.688 -14.312,-32 -32,-32 z m 160,-32 c -17.688,0 -32,14.312 -32,32 0,17.688 14.312,32 32,32 17.688,0 32,-14.312 32,-32 0,-17.688 -14.312,-32 -32,-32 z m -64,128 c -17.688,0 -32,14.312 -32,32 0,17.688 14.312,32 32,32 17.688,0 32,-14.312 32,-32 0,-17.688 -14.312,-32 -32,-32 z m -192,0 c -17.688,0 -32,14.312 -32,32 0,17.688 14.312,32 32,32 17.688,0 32,-14.312 32,-32 0,-17.688 -14.312,-32 -32,-32 z" />
		</g>
	</g>
</svg>

<?xml version="1.0" encoding="utf-8"?>
<!-- Generator: Adobe Illustrator 15.1.0, SVG Export Plug-In . SVG Version: 6.00 Build 0)  -->
<!DOCTYPE svg PUBLIC "-//W3C//DTD SVG 1.1//EN" "http://www.w3.org/Graphics/SVG/1.1/DTD/svg11.dtd">
<svg version="1.1" id="Layer_1"
	xmlns="http://www.w3.org/2000/svg"
	xmlns:xlink="http://www.w3.org/1999/xlink" x="0px" y="0px" width="512px" height="512px" viewBox="0 0 512 512" enable-background="new 0 0 512 512" xml:space="preserve">
	<g>
		<g>
			<style id="current-color-scheme" />
			<path class="ColorScheme-Text" id="hint-apply-color-scheme" fill="currentColor" d="M400,64c-5.312,0-10.562,0.375-15.792,1.125C354.334,24.417,307.188,0,256,0
			s-98.312,24.417-128.208,65.125C122.562,64.375,117.312,64,112,64C50.25,64,0,114.25,0,176s50.25,112,112,112
			c13.688,0,27.084-2.5,39.709-7.333C180.666,305.917,217.5,320,256,320c38.542,0,75.333-14.083,104.291-39.333
			C372.916,285.5,386.312,288,400,288c61.75,0,112-50.25,112-112S461.75,64,400,64z M400,256c-9.709,0-19.209-1.75-28.25-5.208
			l-18-6.917l-14.5,12.667C316,276.833,286.438,288,256,288s-60-11.167-83.25-31.458l-14.5-12.667l-18,6.917
			c-9,3.458-18.541,5.208-28.25,5.208c-44.125,0-80-35.896-80-80s35.875-80,80-80c3.792,0,7.5,0.271,11.25,0.792l18.958,2.75
			l11.354-15.458C177.875,50.979,215.209,32,256,32c40.812,0,78.125,18.958,102.417,52.063l11.375,15.479l18.999-2.75
			C392.5,96.271,396.208,96,400,96c44.125,0,80,35.896,80,80S444.125,256,400,256z M96,320c-17.688,0-32,14.312-32,32
			s14.312,32,32,32s32-14.312,32-32S113.688,320,96,320z M256,352c-17.688,0-32,14.312-32,32s14.312,32,32,32s32-14.312,32-32
			S273.688,352,256,352z M416,320c-17.688,0-32,14.312-32,32s14.312,32,32,32s32-14.312,32-32S433.688,320,416,320z M352,448
			c-17.688,0-32,14.312-32,32s14.312,32,32,32s32-14.312,32-32S369.688,448,352,448z M160,448c-17.688,0-32,14.312-32,32
			s14.312,32,32,32s32-14.312,32-32S177.688,448,160,448z"/>
		</g>
	</g>
</svg>
